X:1
T:Land of Love
T:Land of Love
T:“Johanan”
T:Daniel Henry Bender, 1916
T:Public Domain Courtesy of the Cyber Hymnal™
T:Public Domain Courtesy of the Cyber Hymnal™
C:“Johanan”
Z:Public Domain
Z:Courtesy of the Cyber Hymnal™
%%score ( 1 2 ) ( 3 4 )
L:1/8
Q:1/4=95
M:4/4
K:Ab
V:1 treble 
V:2 treble 
V:3 bass 
V:4 bass 
V:1
 E>E | [EA]>[EA] [EA]>[EA] [EA]2 [EG]>[FA] | [GB]6 [EG]>[EA] | %3
w: 1.~There’s a|land where all are blest, Land of|love, Where re-|
w: 2.~There a-|mid ce- les- tial green, Land of|love, View- ing|
w: 3.~With the|ran- somed gone be- fore, Land of|love, Ga- thered|
 [GB]>[GB] [GB]>[Ac] [Bd]2 [EG]>[EG] | (A3 B [Ac]2) E>E | [EA]>[EA] [EA]>[EA] [EA]2 [EA]>[EB] | %6
w: deemed ones are at rest, Land of|love; * * There we’ll|sing our Sav- ior’s praise, In trans-|
w: glor- ies here un- seen, Land of|love; * * We shall|cease from toil and care, Bask in|
w: on the gold- en shore, Land of|love; * * We shall|sit at Je- sus’ feet, And love’s|
 [Ac]>[Ac] [Ac]>[Ac] [Ac]2 [Ac]>[Ad] | [Ac]>[AB] [EA]>[EA] (G>A) [EB]>[EB] | A6 ||"^Refrain" E>E | %10
w: cend- ent, joy- ful lays, Through- out|cease- less, heav’n- ly days, * Land of|love.||
w: gen- ial, frag- rant air, Dwell with|an- gels bright and fair, * Land of|love.|Land of|
w: trib- ute oft re- peat, There our|rest will be com- plete, * Land of|love.||
 [EA]6 [EG]>[FA] | [EG]6 [EG]>[EA] | [GB]>[GB] [GB]>[Ac] [Bd]2 [EG]>[EG] | (A3 B [Ac]2) E>E | %14
w: ||||
w: love, land of|love, Through- out|cease- less, heav’n- ly days, Land of|love, * * In trans-|
w: ||||
 [EA]>[EA] [EA]>[EA] [EA]2 [EA]>[EB] | [Ac]>[Ac] [Ac]>[Ac] [Ac]2 [Ac]>[Ad] | %16
w: ||
w: cend- ent, joy- ful lays, We will|sing our Sav- ior’s praise, Through- out|
w: ||
 [Ac]>[AB] [EA]>[EA] (G>A) [EB]>[EB] | A6 |] %18
w: ||
w: cease- less heav’n- ly days, * Land of|love.|
w: ||
V:2
 E>E | x8 | x8 | x8 | E4 E>E x2 | x8 | x8 | x4 E2 x2 | (E2 F>F E2) || E>E | x8 | x8 | x8 | %13
 E4 E>E x2 | x8 | x8 | x4 E2 x2 | (E2 F>F E2) |] %18
V:3
 [A,C]>[A,C] | [A,C]>[A,C] [A,C]>[A,C] [A,C]2 [B,D]>[A,C] | %2
w: ||
 [E,E]2 [E,E]>[E,E] [E,E]2 [E,B,]>[E,C] | [E,E]>[E,E] [E,E]>[E,E] [E,E]2 [E,D]>[E,D] | %4
w: * * o- ver there, *||
 [A,C]2 [A,C][A,D] [A,E]2 [A,C]>[A,C] | [A,C]>[A,C] [A,C]>[A,C] [A,C]2 [A,C]>[A,D] | %6
w: * o- ver there, * *||
 [A,E]>[A,E] [A,E]>[A,E] [A,E]2 [A,E]>[A,F] | [A,E]>[A,D] [A,C]>[A,C] (B,>C) [E,D]>[E,D] | %8
w: ||
 C2 D>D C2 || [A,C]>[A,C] | [A,C]2 [A,C]>[A,C] [A,C]2 [B,D]>[A,C] | %11
w: * o- ver there.|||
 [E,E]2 [E,E]>[E,E] [E,E]2 [E,B,]>[E,C] | [E,E]>[E,E] [E,E]>[E,E] [E,E]2 [E,D]>[E,D] | %13
w: ||
 ([A,C]2 [A,C][A,D] [A,E]2) [A,C]>[A,C] | [A,C]>[A,C] [A,C]>[A,C] [A,C]2 [A,C]>[A,D] | %15
w: ||
 [A,E]>[A,E] [A,E]>[A,E] [A,E]2 [A,E]>[A,F] | [A,E]>[A,D] [A,C]>[A,C] (B,>C) [E,D]>[E,D] | %17
w: ||
 (C2 D>D C2) |] %18
w: |
V:4
 x2 | x8 | x8 | x8 | x8 | x8 | x8 | x4 E,2 x2 | A,6 || x2 | x8 | x8 | x8 | x8 | x8 | x8 | %16
 x4 E,2 x2 | A,6 |] %18

